X:1
T:The Bold Fisherman
S:George Maynard, Three Bridges, Sussex, 1956 (or thereabouts)
B:"The Life of a Man", EFDS Publication, 1972
Z:Ken Stubbs
F: http://www.folkinfo.org/songs
M:6/8
L:1/8
K:D
A, |D2 D B,CD |E2 E A,2 A, |D2 D E/D3/2E |
w:As I roved out_ one May Mor-ning Down by the ri_ ver
F3-F2 F |A2 F E/D3/2E |F2 F/F/ B,2 B, |E2 E C/B,3/2C |
w:side_ And there I saw_ a bold fish-er-man Come row-ing down_ the
(D3 D2) A, |D2 D E/D3/2E |F3-F2 F |A2 F E/D3/2E |
w:tide_ Come row-ing do-wn the tide_ And there I saw_ a
F2 F/F/ B,2 B, |E2 E CA,C |D3-D2 z |]
w:bold fish-er-man Come row-ing down_ the tide